!!!OTL: SCHLUMMRE KINDCHEN SCHLUMMRE
!!!ARE: Europa, Mitteleuropa, Deutschland
!!!SCT: F0232
!!!YEM: Copyright 1995, estate of Helmut Schaffrath.
**kern
*ICvox
*Ivox
*M3/4
*k[b-]
*F:
=1
{8a
8g#
4.a
8dd
=2
8cc
8g
4a}
{8a
8cc
=3
2ff
4dd
=4
8cc
8g
4a}
{8.a
16bn
=5
8cc
8bn
4.a
8bn
=6
4cc
4r}
{8cc
8ee
=7
8ff
8bn
4cc
8g
8g#
=8
4a
4r}
{8ff
8ee
=9
8ee
8dd
4dd
4a
=10
4b-
4r}
{8dd
8cc
=11
4.cc
8f
8a
8g
=12
2f
4r}
==
!!!AGN: Wiegen - Lied, religioes
!!!ONB: ESAC (Essen Associative Code) Database: FINK
!!!AMT: simple triple
!!!AIN: vox
!!!EED: Helmut Schaffrath
!!!EEV: 1.0
*-
